X:1
T:God Loved the World
T:God Loved the World
T:William Gustavus Fischer
T:Martha Matilda Stockton, circa 1871
T:Public Domain Courtesy of the Cyber Hymnal™
T:Public Domain Courtesy of the Cyber Hymnal™
C:William Gustavus Fischer
Z:Public Domain
Z:Courtesy of the Cyber Hymnal™
%%score ( 1 2 ) ( 3 4 )
L:1/8
Q:1/4=105
M:6/8
K:Eb
V:1 treble 
V:2 treble 
V:3 bass 
V:4 bass 
V:1
 [B,E] | [B,E]2 [EG] [EB]2 [Ec] | (BG)[DF] [B,E]2 E | A2 A c2 c | ([EB-]3 B3) [B,G] | %5
w: 1.~God|loved the world of|sin- * ners lost, And|ru- ined by the|fall; * Sal-|
w: 2.~E’en|now by faith I|claim * Him mine, The|ris- en Son of|God; * Re-|
w: 3.~Love|brings the glor- ious|full- * ness in, And|to His saints makes|known * The|
w: 4.~Be-|liev- ing souls, re-|joic- * ing go; There|shall to you be|giv’n * A|
w: 5.~Of|vic- tory now o’er|Sa- * tan’s power Let|all the ran- somed|sing, * And|
 E2 G [EB]2 [Ec] | (BG)[DF] E2 [EG] | F2 B [Ec]2 [Fd] | ([DB]3- B2) x ||"^Refrain" B2 c B2 G | %10
w: va- tion full, at|high- * est cost, He|of- fers free to|all. *||
w: demp- tion by His|death * I find, And|cleans- ing through the|blood. *||
w: bless- èd rest from|in- * bred sin, Through|faith in Christ a-|lone. *|O ’twas love, ’twas|
w: glor- ious fore- taste,|here * be- low, Of|end- less life in|Heav’n. *||
w: tri- umph in the|dy- * ing hour Through|Christ, the Lord, our|king. *||
 ([EG][DF])[CE] [DB]2 [EB] | [Ec]2 [Ec] (ed)[Ec] | B3- B2 [FB] | [GB]2 [Ac] [GB]2 [EG] | %14
w: ||||
w: ||||
w: wond- * rous love, The|love of God * to|me; * It|brought my Sav- ior|
w: ||||
w: ||||
 ([EG][DF])[CE] [DB]2 [Dc] | [EB]2 [EG] F2 [B,E] | [B,E]3- [B,E]2 |] %17
w: |||
w: |||
w: from * a- bove, To|die on Cal- va-|ry! *|
w: |||
w: |||
V:2
 x | x6 | E2 x4 | E3 E3 | x3 (FE) x2 | B,3 x3 | D2 (_D C) x2 | D3 x3 | x3 (DEF) || E3 E3 | x6 | %11
 x3 E2 x | (E2 E DE) x | x6 | x6 | x3 (ED) x | x5 |] %17
V:3
 [E,G,] | G,2 B, [G,,B,]2 [A,,A,] | (G,B,)[B,,A,-] (A,G,)G, | [C,A,]3 [A,,A,]3 | %4
 [E,G,]3 A,2 [D,A,] x | [E,G,]3 [E,G,]2 [A,,A,] | (F,B,)[=B,,A,] [C,G,]2 [C,=B,] | %7
 [F,B,]3 [F,,=A,]3 | ([B,,B,]3- B,2) x || G,2 A, [E,G,]2 [D,B,] | [C,=A,]2 [F,A,] [B,,B,]2 [E,G,] | %11
 [A,,A,]3 (CB,)[C,A,] | (G,2 G, F,G,)[B,,A,] | B,2 E [E,E]2 [E,B,] | %14
 [F,=A,]2 [F,A,] [B,,B,]2 [B,,_A,] | [E,G,]2 [E,B,] [B,,A,]2 [E,G,] | [E,G,]3- [E,G,]2 |] %17
V:4
 x | E,3 x3 | B,,2 E,2 (E,/_D,/) x | x6 | x3 (D,C,) x2 | x6 | =B,,2 x4 | x6 | x3 (B,,C,D,) || %9
 E,3 x3 | x6 | x3 A,,2 x | E,3 B,,2 x | E,3 x3 | x6 | x6 | x5 |] %17

